Newaita-dark/actions/16/feed-subscribe.svg

<?xml version="1.0" encoding="UTF-8"?>
<svg xmlns="http://www.w3.org/2000/svg" xmlns:xlink="http://www.w3.org/1999/xlink" width="16pt" height="16pt" viewBox="0 0 16 16" version="1.1">
<g id="surface1">
<path style=" stroke:none;fill-rule:nonzero;fill:rgb(100%,43.921569%,26.274511%);fill-opacity:1;" d="M 0.660156 0.785156 L 0.660156 2.769531 C 7.625 2.769531 13.230469 8.375 13.230469 15.339844 L 15.214844 15.339844 C 15.214844 7.277344 8.722656 0.785156 0.660156 0.785156 Z M 0.660156 0.785156 "/>
<path style=" stroke:none;fill-rule:nonzero;fill:rgb(100%,43.921569%,26.274511%);fill-opacity:1;" d="M 0.660156 4.753906 L 0.660156 6.738281 C 5.425781 6.738281 9.261719 10.574219 9.261719 15.339844 L 11.246094 15.339844 C 11.246094 9.476562 6.523438 4.753906 0.660156 4.753906 Z M 0.660156 4.753906 "/>
<path style=" stroke:none;fill-rule:nonzero;fill:rgb(100%,43.921569%,26.274511%);fill-opacity:1;" d="M 3.140625 10.378906 C 4.511719 10.378906 5.621094 11.488281 5.621094 12.859375 C 5.621094 14.230469 4.511719 15.339844 3.140625 15.339844 C 1.773438 15.339844 0.660156 14.230469 0.660156 12.859375 C 0.660156 11.488281 1.773438 10.378906 3.140625 10.378906 Z M 3.140625 10.378906 "/>
</g>
</svg>

<svg xmlns="http://www.w3.org/2000/svg" width="16pt" height="16pt" viewBox="0 0 16 16"><g fill="#ff7043"><path d="M.66.785V2.77c6.965 0 12.57 5.605 12.57 12.57h1.985A14.524 14.524 0 0 0 .66.785zm0 0"/><path d="M.66 4.754v1.984a8.582 8.582 0 0 1 8.602 8.602h1.984A10.564 10.564 0 0 0 .66 4.754zm0 0"/><path d="M3.14 10.379c1.372 0 2.481 1.11 2.481 2.48a2.481 2.481 0 1 1-2.48-2.48zm0 0"/></g></svg>
